X:001
U: ~ = !turn!
%%topmargin 3cm
T:Alf Edwards Single Jig
B:Traditional Irish Fiddle Tunes. Randy Miller and Jack Perron.
Z:Transcribed by Ralph Palmer
S:Alf Edwards
R:Jig
L:1/8
M:6/8
K:Bb
F | B2 f b2 d | c2 B G2 d | B2 f d2 g | c2f/2e/2 f2 ::
f | d2 B c2 G | F2 d e2 g | f2 d fga | [1 bfd c2 :| [2 bfd [F2B2] |]
